public/img/topics/css.svg

<svg width="30" height="43" viewBox="0 0 30 43" fill="none" xmlns="http://www.w3.org/2000/svg">
<g clip-path="url(#clip0_990_7632)">
<path d="M14 38C20.6274 38 28 30.732 28 23C28 15.268 22.6274 9 16 9C9.37258 9 2 16.268 2 24C2 31.732 7.37258 38 14 38Z" fill="white"/>
<path d="M14.832 42.362C13.814 41.981 12.752 41.75 11.709 41.457C8.81901 40.647 5.92401 39.848 3.02901 39.057C2.76901 38.986 2.68701 38.855 2.66601 38.601C2.33201 34.734 1.99301 30.866 1.64801 26.998C1.24801 22.528 0.840007 18.058 0.438007 13.588C0.294007 11.998 0.162007 10.407 0.00800657 8.81602C-0.0249934 8.47402 0.0280066 8.34802 0.424007 8.34802C10.142 8.36102 19.86 8.36002 29.578 8.35002C29.918 8.35002 30.028 8.42002 29.994 8.77802C29.745 11.395 29.512 14.015 29.277 16.633C29.071 18.923 28.871 21.213 28.667 23.504C28.429 26.15 28.188 28.796 27.952 31.442C27.745 33.76 27.532 36.077 27.349 38.396C27.316 38.814 27.187 39.001 26.765 39.116C22.964 40.148 19.171 41.208 15.375 42.26C15.3 42.281 15.204 42.26 15.166 42.36H14.836L14.832 42.362ZM14.986 14.597V14.607H13.412C10.928 14.607 8.44201 14.607 5.95801 14.609C5.76601 14.609 5.54101 14.531 5.58501 14.902C5.70401 15.885 5.81901 16.871 5.86201 17.859C5.88201 18.312 6.03901 18.379 6.44101 18.379C10.927 18.369 15.413 18.379 19.899 18.375C20.199 18.375 20.289 18.415 20.247 18.755C20.1259 19.7663 20.0368 20.7811 19.98 21.798C19.96 22.125 19.867 22.203 19.55 22.202C16.403 22.193 13.256 22.202 10.109 22.204C8.93601 22.204 7.76201 22.212 6.58901 22.198C6.31501 22.195 6.24701 22.255 6.28001 22.545C6.39201 23.515 6.49501 24.489 6.53301 25.465C6.54901 25.899 6.69301 25.975 7.08901 25.973C11.134 25.963 15.177 25.976 19.222 25.971C19.522 25.971 19.61 26.018 19.576 26.351C19.433 27.733 19.326 29.119 19.215 30.505C19.197 30.72 19.143 30.843 18.903 30.905C17.653 31.231 16.408 31.579 15.161 31.92C15.0411 31.9543 14.9139 31.9543 14.794 31.92C13.548 31.578 12.302 31.236 11.052 30.91C10.837 30.854 10.776 30.764 10.76 30.551C10.699 29.756 10.598 28.963 10.544 28.168C10.525 27.898 10.44 27.826 10.178 27.83C9.15601 27.844 8.13501 27.843 7.11401 27.83C6.84701 27.827 6.75801 27.879 6.78601 28.172C6.94901 29.898 7.09401 31.626 7.23301 33.353C7.25601 33.641 7.38501 33.768 7.66101 33.843C10.021 34.487 12.377 35.143 14.735 35.798C14.927 35.851 15.107 35.842 15.301 35.788C17.631 35.138 19.963 34.488 22.299 33.858C22.602 33.778 22.723 33.656 22.734 33.344C22.749 32.904 22.82 32.468 22.859 32.03C23.088 29.413 23.313 26.794 23.544 24.176C23.817 21.093 24.092 18.01 24.379 14.927C24.404 14.672 24.366 14.591 24.095 14.592C21.058 14.6 18.022 14.598 14.985 14.598L14.986 14.597Z" fill="#3D5CAA"/>
<path d="M14.827 0.0350215C15.49 0.0350215 16.152 0.0420215 16.815 0.0310215C17.009 0.0280215 17.102 0.0760215 17.068 0.281022C17.066 0.294022 17.068 0.308022 17.068 0.321022C17.039 0.770022 17.258 1.35502 16.981 1.62602C16.761 1.84102 16.171 1.68302 15.745 1.68802C15.386 1.69102 15.027 1.68502 14.668 1.69002C14.558 1.69102 14.416 1.63802 14.413 1.85002C14.409 2.06002 14.545 2.01802 14.661 2.01802C15.365 2.02002 16.069 2.02802 16.773 2.01302C17.001 2.00902 17.077 2.06402 17.073 2.30302C17.061 3.37802 17.062 4.45302 17.073 5.52702C17.076 5.75402 17.022 5.82802 16.782 5.82602C15.457 5.81402 14.132 5.81502 12.807 5.82602C12.579 5.82802 12.489 5.77602 12.509 5.53402C12.549 5.05902 12.459 4.57902 12.559 4.10502C13.013 4.09902 13.465 4.09002 13.919 4.08502C14.249 4.08202 14.582 4.08802 14.913 4.08302C15.023 4.08202 15.165 4.13502 15.168 3.92302C15.172 3.71302 15.036 3.75502 14.919 3.75502C14.215 3.75302 13.512 3.74502 12.808 3.76002C12.58 3.76402 12.504 3.70902 12.507 3.47002C12.52 2.42202 12.519 1.37502 12.507 0.330022C12.505 0.102022 12.557 0.0230215 12.799 0.0300215C13.475 0.0460215 14.151 0.0350215 14.827 0.0350215ZM20.257 5.82102C19.594 5.82102 18.933 5.81102 18.27 5.82702C18.035 5.83302 17.962 5.76502 17.974 5.53102C17.9911 5.13187 17.9911 4.73217 17.974 4.33302C17.967 4.13202 18.032 4.07802 18.229 4.08102C18.933 4.09202 19.637 4.08902 20.34 4.08102C20.453 4.08002 20.633 4.16702 20.631 3.91902C20.631 3.67002 20.452 3.75902 20.339 3.75702C19.649 3.75102 18.959 3.74402 18.269 3.76002C18.035 3.76502 17.969 3.69902 17.972 3.46502C17.984 2.41802 17.984 1.37102 17.972 0.325022C17.969 0.0920215 18.034 0.0280215 18.268 0.0290215C19.592 0.0390215 20.918 0.0390215 22.242 0.0290215C22.476 0.0270215 22.55 0.0890215 22.538 0.325022C22.515 0.762022 22.686 1.34002 22.468 1.60302C22.242 1.87502 21.643 1.66902 21.207 1.68402C20.835 1.69802 20.462 1.68902 20.089 1.68702C19.972 1.68702 19.879 1.68402 19.879 1.85302C19.879 2.02302 19.973 2.01902 20.09 2.01902C20.808 2.01802 21.526 2.02802 22.242 2.01302C22.476 2.00902 22.542 2.07402 22.539 2.30802C22.527 3.38302 22.527 4.45802 22.539 5.53102C22.541 5.76402 22.479 5.83302 22.244 5.82702C21.582 5.81202 20.92 5.82102 20.257 5.82102ZM7.045 2.87402C7.045 2.03402 7.054 1.19402 7.039 0.354022C7.035 0.113022 7.077 0.0240215 7.349 0.0280215C8.659 0.0440215 9.969 0.0410215 11.281 0.0300215C11.52 0.0280215 11.625 0.0640215 11.607 0.338022C11.581 0.750277 11.581 1.16377 11.607 1.57602C11.624 1.85402 11.56 1.95602 11.257 1.94402C10.582 1.91802 9.904 1.94302 9.228 1.93202C9.026 1.92802 8.935 1.96602 8.945 2.19802C8.965 2.65202 8.967 3.10702 8.945 3.56102C8.933 3.81702 9.04 3.84602 9.255 3.84202C9.945 3.83002 10.635 3.84502 11.324 3.83302C11.528 3.83002 11.616 3.87002 11.606 4.10102C11.586 4.55502 11.592 5.01002 11.606 5.46402C11.611 5.66902 11.566 5.74602 11.337 5.74502C9.99903 5.73287 8.66098 5.73287 7.323 5.74502C7.066 5.74702 7.039 5.64902 7.042 5.43502C7.052 4.58102 7.045 3.72702 7.045 2.87402Z" fill="white"/>
</g>
<defs>
<clipPath id="clip0_990_7632">
<rect width="30" height="43" fill="white"/>
</clipPath>
</defs>
</svg>

<svg width="30" height="43" fill="none" xmlns="http://www.w3.org/2000/svg"><ellipse cx="15" cy="24.028" rx="13.8" ry="14.4" fill="#fff"/><path d="M14.832 42.362c-1.018-.381-2.08-.612-3.123-.905-2.89-.81-5.785-1.609-8.68-2.4-.26-.071-.342-.202-.363-.456-.334-3.867-.673-7.735-1.018-11.603-.4-4.47-.808-8.94-1.21-13.41-.144-1.59-.276-3.181-.43-4.772-.033-.342.02-.468.416-.468 9.718.013 19.436.012 29.154.002.34 0 .45.07.416.428-.249 2.617-.482 5.237-.717 7.855-.206 2.29-.406 4.58-.61 6.871-.238 2.646-.479 5.292-.715 7.938-.207 2.318-.42 4.635-.603 6.954-.033.418-.162.605-.584.72-3.801 1.032-7.594 2.092-11.39 3.144-.075.021-.171 0-.209.1h-.33l-.004.002Zm.154-27.765v.01h-1.574c-2.484 0-4.97 0-7.454.002-.192 0-.417-.078-.373.293.119.983.234 1.969.277 2.957.02.453.177.52.579.52 4.486-.01 8.972 0 13.458-.004.3 0 .39.04.348.38a48.199 48.199 0 0 0-.267 3.043c-.02.327-.113.405-.43.404-3.147-.009-6.294 0-9.441.002-1.173 0-2.347.008-3.52-.006-.274-.003-.342.057-.309.347.112.97.215 1.944.253 2.92.016.434.16.51.556.508 4.045-.01 8.088.003 12.133-.002.3 0 .388.047.354.38-.143 1.382-.25 2.768-.361 4.154-.018.215-.072.338-.312.4-1.25.326-2.495.674-3.742 1.015a.667.667 0 0 1-.367 0c-1.246-.342-2.492-.684-3.742-1.01-.215-.056-.276-.146-.292-.359-.061-.795-.162-1.588-.216-2.383-.019-.27-.104-.342-.366-.338-1.022.014-2.043.013-3.064 0-.267-.003-.356.049-.328.342.163 1.726.308 3.454.447 5.181.023.288.152.415.428.49 2.36.644 4.716 1.3 7.074 1.955.192.053.372.044.566-.01 2.33-.65 4.662-1.3 6.998-1.93.303-.08.424-.202.435-.514.015-.44.086-.876.125-1.314.229-2.617.454-5.236.685-7.854.273-3.083.548-6.166.835-9.249.025-.255-.013-.336-.284-.335-3.037.008-6.073.006-9.11.006v-.001Z" fill="#3D5CAA"/><path d="M14.827.035c.663 0 1.325.007 1.988-.004.194-.003.287.045.253.25-.002.013 0 .027 0 .04-.029.449.19 1.034-.087 1.305-.22.215-.81.057-1.236.062-.359.003-.718-.003-1.077.002-.11.001-.252-.052-.255.16-.004.21.132.168.248.168.704.002 1.408.01 2.112-.005.228-.004.304.051.3.29-.012 1.075-.011 2.15 0 3.224.003.227-.051.301-.291.299-1.325-.012-2.65-.011-3.975 0-.228.002-.318-.05-.298-.292.04-.475-.05-.955.05-1.429.454-.006.906-.015 1.36-.02.33-.003.663.003.994-.002.11-.001.252.052.255-.16.004-.21-.132-.168-.249-.168-.704-.002-1.407-.01-2.111.005-.228.004-.304-.051-.301-.29.013-1.048.012-2.095 0-3.14-.002-.228.05-.307.292-.3.676.016 1.352.005 2.028.005ZM20.257 5.821c-.663 0-1.324-.01-1.987.006-.235.006-.308-.062-.296-.296a13.96 13.96 0 0 0 0-1.198c-.007-.201.058-.255.255-.252.704.011 1.408.008 2.111 0 .113-.001.293.086.291-.162 0-.249-.179-.16-.292-.162-.69-.006-1.38-.013-2.07.003-.234.005-.3-.061-.297-.295.012-1.047.012-2.094 0-3.14-.003-.233.062-.297.296-.296 1.324.01 2.65.01 3.974 0 .234-.002.308.06.296.296-.023.437.148 1.015-.07 1.278-.226.272-.825.066-1.261.081-.372.014-.745.005-1.118.003-.117 0-.21-.003-.21.166 0 .17.094.166.211.166.718-.001 1.436.009 2.152-.006.234-.004.3.061.297.295-.012 1.075-.012 2.15 0 3.223.002.233-.06.302-.295.296-.662-.015-1.325-.006-1.988-.006h.001ZM7.045 2.874c0-.84.009-1.68-.006-2.52-.004-.241.038-.33.31-.326 1.31.016 2.62.013 3.932.002.239-.002.344.034.326.308a9.816 9.816 0 0 0 0 1.238c.017.278-.047.38-.35.368-.675-.026-1.353-.001-2.029-.012-.202-.004-.293.034-.283.266.02.454.022.909 0 1.363-.012.256.095.285.31.281.69-.012 1.38.003 2.069-.009.204-.003.292.037.282.268-.02.454-.014.909 0 1.363.005.205-.04.282-.269.281a221.004 221.004 0 0 0-4.014 0c-.257.002-.284-.096-.281-.31.01-.854.004-1.708.004-2.561h-.001Z" fill="#fff"/></svg>
